client/src/images/icon.svg

<svg width="98" height="98" viewBox="0 0 98 98" fill="none" xmlns="http://www.w3.org/2000/svg">
<g clip-path="url(#clip0)">
<path d="M53.2058 7.63585L8.33 0.816678C6.2475 0.490012 4.12417 1.06168 2.53167 2.40918C0.939167 3.79751 0 5.79835 0 7.88085V93.9167C0 96.1625 1.8375 98 4.08333 98H17.3542V76.5625C17.3542 72.6017 20.5392 69.4167 24.5 69.4167H34.7083C38.6692 69.4167 41.8542 72.6017 41.8542 76.5625V98H59.2083V14.7C59.2083 11.1883 56.6767 8.20751 53.2058 7.63585ZM22.4583 60.2292H16.3333C14.6428 60.2292 13.2708 58.8572 13.2708 57.1667C13.2708 55.4762 14.6428 54.1042 16.3333 54.1042H22.4583C24.1488 54.1042 25.5208 55.4762 25.5208 57.1667C25.5208 58.8572 24.1488 60.2292 22.4583 60.2292ZM22.4583 47.9792H16.3333C14.6428 47.9792 13.2708 46.6072 13.2708 44.9167C13.2708 43.2262 14.6428 41.8542 16.3333 41.8542H22.4583C24.1488 41.8542 25.5208 43.2262 25.5208 44.9167C25.5208 46.6072 24.1488 47.9792 22.4583 47.9792ZM22.4583 35.7292H16.3333C14.6428 35.7292 13.2708 34.3572 13.2708 32.6667C13.2708 30.9762 14.6428 29.6042 16.3333 29.6042H22.4583C24.1488 29.6042 25.5208 30.9762 25.5208 32.6667C25.5208 34.3572 24.1488 35.7292 22.4583 35.7292ZM22.4583 23.4792H16.3333C14.6428 23.4792 13.2708 22.1072 13.2708 20.4167C13.2708 18.7262 14.6428 17.3542 16.3333 17.3542H22.4583C24.1488 17.3542 25.5208 18.7262 25.5208 20.4167C25.5208 22.1072 24.1488 23.4792 22.4583 23.4792ZM42.875 60.2292H36.75C35.0595 60.2292 33.6875 58.8572 33.6875 57.1667C33.6875 55.4762 35.0595 54.1042 36.75 54.1042H42.875C44.5655 54.1042 45.9375 55.4762 45.9375 57.1667C45.9375 58.8572 44.5655 60.2292 42.875 60.2292ZM42.875 47.9792H36.75C35.0595 47.9792 33.6875 46.6072 33.6875 44.9167C33.6875 43.2262 35.0595 41.8542 36.75 41.8542H42.875C44.5655 41.8542 45.9375 43.2262 45.9375 44.9167C45.9375 46.6072 44.5655 47.9792 42.875 47.9792ZM42.875 35.7292H36.75C35.0595 35.7292 33.6875 34.3572 33.6875 32.6667C33.6875 30.9762 35.0595 29.6042 36.75 29.6042H42.875C44.5655 29.6042 45.9375 30.9762 45.9375 32.6667C45.9375 34.3572 44.5655 35.7292 42.875 35.7292ZM42.875 23.4792H36.75C35.0595 23.4792 33.6875 22.1072 33.6875 20.4167C33.6875 18.7262 35.0595 17.3542 36.75 17.3542H42.875C44.5655 17.3542 45.9375 18.7262 45.9375 20.4167C45.9375 22.1072 44.5655 23.4792 42.875 23.4792Z" fill="#FF725E"/>
<path d="M92.3651 44.2715L63.2917 38.1833V98H90.8542C94.7947 98 98.0001 94.7946 98.0001 90.8542V51.254C98.0001 47.8812 95.7012 45.0106 92.3651 44.2715ZM82.6876 85.75H76.5626C74.8721 85.75 73.5001 84.378 73.5001 82.6875C73.5001 80.997 74.8721 79.625 76.5626 79.625H82.6876C84.3781 79.625 85.7501 80.997 85.7501 82.6875C85.7501 84.378 84.3781 85.75 82.6876 85.75ZM82.6876 73.5H76.5626C74.8721 73.5 73.5001 72.128 73.5001 70.4375C73.5001 68.747 74.8721 67.375 76.5626 67.375H82.6876C84.3781 67.375 85.7501 68.747 85.7501 70.4375C85.7501 72.128 84.3781 73.5 82.6876 73.5ZM82.6876 61.25H76.5626C74.8721 61.25 73.5001 59.878 73.5001 58.1875C73.5001 56.497 74.8721 55.125 76.5626 55.125H82.6876C84.3781 55.125 85.7501 56.497 85.7501 58.1875C85.7501 59.878 84.3781 61.25 82.6876 61.25Z" fill="#455A64"/>
</g>
<defs>
<clipPath id="clip0">
<rect width="98" height="98" fill="white"/>
</clipPath>
</defs>
</svg>

<svg xmlns="http://www.w3.org/2000/svg" width="98" height="98" fill="none" xmlns:v="https://vecta.io/nano"><g clip-path="url(#A)"><path d="M53.206 7.636L8.33.817C6.248.5 4.124 1.062 2.532 2.41.94 3.798 0 5.798 0 7.88v86.036C0 96.163 1.838 98 4.083 98h13.27V76.563a7.13 7.13 0 0 1 7.146-7.146h10.208a7.13 7.13 0 0 1 7.146 7.146V98h17.354V14.7a7.15 7.15 0 0 0-6.002-7.064zM22.458 60.23h-6.125c-1.69 0-3.063-1.372-3.063-3.062s1.372-3.062 3.063-3.062h6.125c1.69 0 3.063 1.372 3.063 3.063s-1.372 3.063-3.062 3.063zm0-12.25h-6.125c-1.69 0-3.063-1.372-3.063-3.062s1.372-3.062 3.063-3.062h6.125c1.69 0 3.063 1.372 3.063 3.063s-1.372 3.063-3.062 3.063zm0-12.25h-6.125c-1.69 0-3.063-1.372-3.063-3.062s1.372-3.062 3.063-3.062h6.125c1.69 0 3.063 1.372 3.063 3.063s-1.372 3.063-3.062 3.063zm0-12.25h-6.125c-1.69 0-3.063-1.372-3.063-3.062s1.372-3.062 3.063-3.062h6.125c1.69 0 3.063 1.372 3.063 3.063s-1.372 3.063-3.062 3.063zm20.417 36.75H36.75c-1.7 0-3.062-1.372-3.062-3.062s1.372-3.062 3.063-3.062h6.125c1.69 0 3.063 1.372 3.063 3.063s-1.372 3.063-3.062 3.063zm0-12.25H36.75c-1.7 0-3.062-1.372-3.062-3.062s1.372-3.062 3.063-3.062h6.125c1.69 0 3.063 1.372 3.063 3.063s-1.372 3.063-3.062 3.063zm0-12.25H36.75c-1.7 0-3.062-1.372-3.062-3.062s1.372-3.062 3.063-3.062h6.125c1.69 0 3.063 1.372 3.063 3.063s-1.372 3.063-3.062 3.063zm0-12.25H36.75c-1.7 0-3.062-1.372-3.062-3.062s1.372-3.062 3.063-3.062h6.125c1.69 0 3.063 1.372 3.063 3.063s-1.372 3.063-3.062 3.063z" fill="#ff725e"/><path d="M92.365 44.272l-29.073-6.088V98h27.563C94.795 98 98 94.795 98 90.854v-39.6c0-3.373-2.3-6.243-5.635-6.982zm-9.677 41.48h-6.125c-1.7 0-3.062-1.372-3.062-3.062s1.372-3.062 3.063-3.062h6.125c1.69 0 3.063 1.372 3.063 3.063s-1.372 3.063-3.062 3.063zm0-12.25h-6.125c-1.7 0-3.062-1.372-3.062-3.062s1.372-3.062 3.063-3.062h6.125c1.69 0 3.063 1.372 3.063 3.063S84.378 73.5 82.688 73.5zm0-12.25h-6.125c-1.7 0-3.062-1.372-3.062-3.062s1.372-3.062 3.063-3.062h6.125c1.69 0 3.063 1.372 3.063 3.063s-1.372 3.063-3.062 3.063z" fill="#455a64"/></g><defs><clipPath id="A"><path fill="#fff" d="M0 0h98v98H0z"/></clipPath></defs></svg>
